X: 10403
T: STAFFORDSHIRE MILITIA MARCH
%R: march
B: W. Hamilton "Universal Tune-Book" Vol. 1 Glasgow 1844 p.40 #3
S: http://imslp.org/wiki/Hamilton's_Universal_Tune-Book_(Various)
Z: 2016 John Chambers <jc:trillian.mit.edu>
M: C|
L: 1/8
K: D
% - - - - - - - - - - - - - - - - - - - - - - - - -
|:\
d3d cdec | d2d>d d4 |\
f3f efge | f2f>f f4 |\
d3f gfed | cAce a4 |\
e2(3(fed) c2TB2 | A2A>A A4 :|
|:\
a3g f^dfa | g2bg e3f |\
g3f eceg | f2af d3A |\
d>de>e f3e | f>fg>g a3g |\
(3(fga) (3(bag) f2e2 | d2d>d d4 :|
% - - - - - - - - - - - - - - - - - - - - - - - - -

%%sep 1 1 500
%%sep 1 1 500

